content/packer/v1.10.x/img/product-features-list/deployment.svg

<svg width="72" height="72" viewBox="0 0 72 72" fill="none" xmlns="http://www.w3.org/2000/svg">
<rect width="72" height="72" fill="#F0FAFF"/>
<path d="M29.6401 45.7152C29.4499 45.7152 29.2868 45.7967 29.151 45.9054L26.7324 48.324C26.5965 48.4599 26.5422 48.623 26.5422 48.8132C26.5422 49.0034 26.6237 49.1665 26.7324 49.3023C26.8683 49.4382 27.0313 49.4926 27.2215 49.4926C27.4118 49.4926 27.5748 49.411 27.7107 49.3023L30.1293 46.8838C30.2651 46.7479 30.3195 46.5848 30.3195 46.3946C30.3195 46.2044 30.238 46.0413 30.1293 45.9054C29.9934 45.7967 29.8303 45.7152 29.6401 45.7152ZM50.2932 21.6924C50.0758 21.475 49.7497 21.3391 49.4236 21.3391C49.3149 21.3391 49.2062 21.3663 49.0975 21.3935L46.8148 21.9913C42.8201 23.0511 38.934 25.1165 35.6458 27.9427C35.3741 28.1872 35.3197 28.6221 35.5643 28.8938C35.7002 29.0569 35.8904 29.1384 36.0806 29.1384C36.2437 29.1384 36.4067 29.084 36.5154 28.9753C39.6949 26.285 43.3636 24.3284 47.1953 23.2957L49.2606 22.7522L48.7171 24.8175C47.3311 30.0352 44.1788 34.9539 39.8852 38.6497L39.858 38.6769C39.8036 38.704 39.8036 38.704 39.7764 38.7312C39.7493 38.7584 39.7493 38.7584 39.7493 38.7856C39.7493 38.8127 39.7221 38.8127 39.7221 38.8399C39.7221 38.8671 39.6949 38.8671 39.6949 38.8943C39.6949 38.9214 39.6677 38.9486 39.6677 38.9486C39.6677 38.9758 39.6677 39.003 39.6406 39.003C39.6406 39.0301 39.6406 39.0573 39.6406 39.0573C39.6406 39.0845 39.6406 39.1117 39.6406 39.1388V39.166L39.8852 44.8456C39.9123 45.2532 39.6949 45.6609 39.3416 45.8783L34.6947 48.8132L34.2055 43.8401C34.1784 43.4869 33.8794 43.2151 33.5262 43.2151C33.499 43.2151 33.4718 43.2151 33.4718 43.2151C33.0914 43.2423 32.8196 43.5956 32.874 43.9488L33.4446 50.0361C33.4718 50.2806 33.6077 50.4709 33.8251 50.5796C33.9066 50.6339 34.0153 50.6611 34.124 50.6611C34.2599 50.6611 34.3686 50.6339 34.4773 50.5524L40.0482 47.0196C40.8091 46.5576 41.2711 45.6609 41.2167 44.7913L40.9993 39.4378L41.108 39.3562C45.4289 35.5245 48.6084 30.47 50.0487 25.1436L50.6465 22.8609C50.728 22.4805 50.6193 22.0185 50.2932 21.6924ZM27.0857 32.1548H27.1128L32.8196 32.4266C33.1729 32.4266 33.4718 32.1548 33.499 31.7744C33.499 31.5841 33.4446 31.4211 33.3359 31.2852C33.2001 31.1493 33.037 31.0678 32.874 31.0678L27.1944 30.7961C27.1672 30.7961 27.14 30.7961 27.1128 30.7961C26.2704 30.7961 25.428 31.258 24.966 31.9646L21.4332 37.5355C21.2973 37.7257 21.2973 37.9975 21.406 38.2149C21.5147 38.4323 21.7593 38.5682 22.0039 38.5682C22.2757 38.5682 24.504 38.7856 27.6563 39.1117C27.7379 39.1117 27.7922 39.1388 27.8466 39.1932L28.064 39.4106L22.955 44.5739C22.8192 44.7097 22.7648 44.8728 22.7648 45.063C22.7648 45.2532 22.8463 45.4163 22.955 45.5522C23.0909 45.688 23.254 45.7424 23.4442 45.7424C23.6344 45.7424 23.7975 45.6609 23.9333 45.5522L29.0694 40.4161L29.8847 41.2313C30.0206 41.3672 30.1836 41.4215 30.3738 41.4215C30.5641 41.4215 30.7271 41.34 30.863 41.2313C30.9989 41.0954 31.0532 40.9324 31.0532 40.7422C31.0532 40.5519 30.9717 40.3889 30.863 40.253L28.852 38.2421C28.5803 37.9703 28.227 37.8073 27.8466 37.7529C26.4335 37.617 24.8301 37.454 23.6616 37.3453L23.2268 37.2909L26.1617 32.6711C26.2976 32.3722 26.7052 32.1548 27.0857 32.1548Z" fill="#63D0FF"/>
</svg>

<svg xmlns="http://www.w3.org/2000/svg" width="72" height="72" fill="none" viewBox="0 0 72 72">
  <path fill="#F0FAFF" d="M0 0h72v72H0z"/>
  <path fill="#63D0FF" d="M29.64 45.715a.78.78 0 0 0-.489.19l-2.419 2.419a.66.66 0 0 0-.19.49c0 .19.082.352.19.488.136.136.3.19.49.19s.353-.081.489-.19l2.418-2.418a.66.66 0 0 0 .19-.49.78.78 0 0 0-.19-.489.78.78 0 0 0-.489-.19m20.653-24.023a1.26 1.26 0 0 0-.87-.353c-.108 0-.217.027-.326.055l-2.282.597c-3.995 1.06-7.881 3.125-11.17 5.952-.27.244-.325.68-.08.95a.67.67 0 0 0 .516.245.62.62 0 0 0 .434-.163c3.18-2.69 6.849-4.647 10.68-5.68l2.066-.543-.544 2.066c-1.386 5.217-4.538 10.136-8.832 13.832l-.027.027c-.054.027-.054.027-.082.054-.027.027-.027.027-.027.055 0 .027-.027.027-.027.054s-.027.027-.027.054-.027.055-.027.055c0 .027 0 .054-.027.054v.163l.244 5.68c.027.407-.19.815-.543 1.032l-4.647 2.935-.49-4.973a.68.68 0 0 0-.679-.625h-.054a.65.65 0 0 0-.598.734l.57 6.087a.67.67 0 0 0 .381.544c.082.054.19.081.299.081a.55.55 0 0 0 .353-.109l5.571-3.532a2.49 2.49 0 0 0 1.169-2.229l-.218-5.353.109-.082c4.32-3.831 7.5-8.886 8.94-14.212l.599-2.283a1.3 1.3 0 0 0-.354-1.169M27.086 32.155h.027l5.707.272a.685.685 0 0 0 .679-.653.76.76 0 0 0-.163-.489.67.67 0 0 0-.462-.217l-5.68-.272h-.081c-.843 0-1.685.462-2.147 1.169l-3.533 5.57c-.136.19-.136.463-.027.68a.68.68 0 0 0 .598.353c.272 0 2.5.218 5.652.544.082 0 .136.027.19.081l.218.218-5.109 5.163a.66.66 0 0 0-.19.489c0 .19.081.353.19.49.136.135.299.19.49.19.19 0 .352-.082.488-.19l5.136-5.137.816.815c.136.136.299.19.489.19s.353-.081.489-.19a.66.66 0 0 0 .19-.489.78.78 0 0 0-.19-.489l-2.011-2.01a1.76 1.76 0 0 0-1.005-.49c-1.414-.136-3.017-.299-4.185-.408l-.435-.054 2.935-4.62c.136-.299.543-.516.924-.516"/>
</svg>
